X:42
T:Firework Dreams
M:6/8
L:1/8
R:Jig
C:Gris Sanderson
Q:400
N:I don't like being on ships. I find them so boring I tend go to 
N:sleep, usually on deck if possible. On one such occasion, as I 
N:slept I had a strange dream in which all my companions were 
N:watching a spectacular firework display. When we docked I 
N:woke up to find out that - yes! a spectacular firework display 
N:had taken place from the port town as we'd approached. I 
N:have missed dolphin and porpoise displays for the same 
N:reason. This jig was written after this event and was originally 
N:for the scordatura tuning A,DAd.
K:Bm
B2AB2A|Bdc AFA|B2A B2A|BAF EFA|
B2A Bdd|efe dcA|B,DD EFA|Bdd efa|
e2d e2d|egf dBd|e2d e2d|edc Bcd|
e2d ega|efe dcd|afe ddB|AFE DDB,|
|:E2DE2D|Ed2 e2d|eD EA ED|Ed ea ed|
D2ED2E|De2d2e|aed BAF|1EDB, A,B,D:|2EFA dde||
